P2
128 72
255
0 0 0 0 0 0 0 0 0 0 0 0 0 0 0 0 0 0 0 0 0 0 0 0 0 0 0 0 0 0 0 0 0 0 0 0 0 0 0 0 0 0 0 0 0 0 0 0 0 0 0 0 0 0 0 0 0 0 0 0 0 0 0 0 0 0 0 0 0 0 0 0 0 0 0 0 0 0 0 0 0 0 0 0 0 0 0 0 0 0 0 0 0 0 0 0 0 0 0 0 0 0 0 0 0 0 0 0 0 0 0 0 0 0 0 0 0 0 0 0 0 0 0 0 0 0 0 0 
0 6 106 104 42 26 24 22 24 26 24 22 24 26 24 22 24 26 24 22 24 26 22 22 24 24 24 22 22 24 24 22 24 26 24 22 24 26 22 22 24 24 22 22 24 24 22 22 24 24 22 22 24 24 24 22 22 24 22 24 26 244 232 0 0 0 214 220 24 24 22 22 24 24 22 24 26 24 22 24 26 24 22 24 26 24 22 22 24 24 22 24 26 24 22 24 26 24 22 24 26 24 22 24 26 24 22 24 26 24 22 24 26 24 22 22 24 24 22 24 26 24 22 130 255 255 12 0 
0 86 6 90 86 36 22 24 24 22 22 24 24 22 22 24 24 22 22 24 24 22 22 26 24 22 24 24 22 22 24 24 24 22 22 24 24 22 22 26 24 22 24 26 24 22 24 26 24 22 24 26 24 22 24 24 22 22 24 26 24 234 224 0 0 0 206 212 24 22 24 26 24 22 24 26 24 22 24 24 22 22 24 26 24 22 24 26 24 22 24 26 24 22 24 24 22 22 24 24 22 22 24 24 22 22 24 24 22 22 24 26 24 22 24 22 22 24 24 24 22 22 132 255 255 12 255 0 
0 74 68 6 70 68 30 26 22 22 24 24 22 22 24 24 22 22 24 24 22 22 24 24 22 24 26 24 22 24 26 24 22 22 24 24 22 22 24 24 22 24 26 24 22 24 26 24 22 24 26 24 22 24 26 24 22 24 26 24 22 226 216 0 0 0 196 200 22 24 26 24 22 24 26 24 22 24 26 22 22 24 24 24 22 22 24 24 22 24 26 24 22 24 26 22 22 24 24 22 22 24 24 22 22 24 24 22 22 24 24 24 22 22 24 22 24 26 24 22 22 134 255 255 12 255 255 0 
0 24 56 52 4 54 50 22 22 26 24 22 24 26 24 22 24 26 24 22 24 26 24 22 24 26 24 22 24 26 24 22 24 26 24 22 24 26 24 22 24 26 24 22 24 24 22 22 24 24 22 22 24 24 22 22 24 26 24 22 24 218 206 0 0 0 188 192 24 24 22 22 24 24 22 22 24 24 22 22 26 24 22 24 24 22 22 24 24 24 22 22 24 24 22 22 26 24 22 24 26 24 22 24 26 24 22 24 26 24 22 24 24 22 22 24 26 24 22 24 136 255 255 12 255 255 180 0 
0 24 22 38 34 6 36 32 24 24 22 24 26 24 22 24 26 24 22 24 26 24 22 24 26 24 22 24 26 24 22 22 24 24 22 24 26 24 22 24 26 24 22 24 26 22 22 24 24 22 22 24 24 22 22 24 24 24 22 24 26 208 196 0 0 0 180 186 24 22 22 24 24 22 22 24 24 22 22 24 24 22 24 26 24 22 24 26 24 22 22 24 24 22 22 24 24 22 24 26 24 22 24 26 24 22 24 26 24 22 24 26 24 22 24 26 24 22 24 138 255 255 12 255 255 184 24 0 
0 26 26 26 20 14 8 20 20 26 26 26 26 26 26 26 26 26 26 26 26 26 26 26 26 26 26 26 26 26 26 24 26 26 24 26 26 24 24 26 26 26 26 26 26 26 28 26 26 26 26 26 26 26 26 26 26 26 24 26 26 200 188 0 0 0 170 178 26 26 26 26 26 26 26 26 26 26 26 26 26 26 26 26 26 26 26 26 26 26 26 26 26 26 26 26 26 26 26 26 26 26 26 26 26 26 26 26 26 26 26 26 26 26 26 26 26 26 142 255 255 12 255 255 190 26 26 0 
0 24 22 22 24 18 6 6 6 20 24 22 24 26 24 22 24 24 22 22 24 24 22 22 24 24 22 22 24 24 22 22 26 24 22 24 24 22 22 24 24 24 22 22 24 24 22 22 26 24 22 24 26 24 22 24 26 24 22 24 24 190 178 0 0 0 160 166 26 24 22 24 26 24 22 24 26 24 22 24 26 24 22 24 26 24 22 24 24 22 22 24 26 24 22 24 26 24 22 24 26 24 22 24 24 22 22 24 24 22 22 24 24 22 22 24 24 148 255 255 12 255 255 192 24 22 22 0 
0 22 22 24 24 24 18 22 6 20 22 24 26 24 22 24 26 22 22 24 24 22 22 24 24 22 22 24 24 22 22 24 24 22 24 26 24 22 24 26 24 22 22 24 24 22 22 24 24 22 24 26 24 22 24 26 24 22 24 26 24 180 168 0 0 0 152 158 24 22 24 26 24 22 24 26 24 22 24 26 24 22 24 26 24 22 24 26 22 22 24 24 24 22 22 24 24 22 24 26 24 22 24 26 22 22 24 24 22 22 24 24 22 22 24 24 152 255 255 12 255 255 196 26 22 22 26 0 
0 24 26 24 22 24 24 34 38 4 36 40 22 22 24 24 22 22 26 24 22 24 26 24 22 24 26 24 22 24 26 24 22 24 26 24 22 24 26 24 22 24 26 24 22 24 26 24 22 24 26 24 22 24 24 22 22 24 24 22 22 172 160 0 0 0 142 150 22 24 26 24 22 24 24 22 22 24 24 22 22 24 24 22 22 24 24 22 22 26 24 22 24 24 22 22 24 24 24 22 22 24 24 22 22 26 24 22 24 26 24 22 24 26 24 154 255 255 12 255 255 198 24 22 22 26 28 0 
0 26 24 22 24 26 24 22 52 56 6 54 58 24 24 22 22 24 24 22 24 26 24 22 24 26 24 22 24 26 24 22 24 26 24 22 24 26 24 22 22 24 24 22 24 26 24 22 24 26 24 22 24 26 22 22 24 24 22 22 24 164 152 0 0 0 132 140 24 26 24 22 24 26 22 22 24 24 22 22 24 24 22 22 24 24 22 22 24 24 22 24 26 24 22 24 26 24 22 22 24 24 22 22 24 24 22 24 26 24 22 24 26 24 158 255 255 12 255 255 202 24 22 22 24 24 24 0 
0 26 26 26 26 26 26 26 30 70 76 8 70 74 26 26 26 26 26 26 26 26 26 26 26 26 26 26 26 26 26 26 26 26 26 26 26 26 26 26 24 26 26 24 26 26 24 24 26 26 26 26 26 26 26 28 26 26 26 26 26 156 144 0 0 0 124 130 26 26 24 24 26 26 26 28 26 26 26 26 26 26 26 26 26 26 26 26 26 26 26 26 26 26 26 26 26 26 26 26 26 26 26 26 26 26 26 26 26 26 26 26 26 158 255 255 14 255 255 206 26 26 26 26 26 26 28 0 
0 24 26 24 22 24 24 22 22 32 88 92 4 90 94 24 22 24 26 24 22 24 26 24 22 24 24 22 22 24 24 22 22 24 24 22 22 24 24 22 22 26 24 22 24 24 22 22 24 24 24 22 22 24 24 22 22 26 24 22 24 146 134 0 0 0 116 120 24 24 22 22 24 24 24 22 22 26 24 22 24 26 24 22 24 26 24 22 24 26 24 22 24 26 24 22 24 24 22 22 24 26 24 22 24 26 24 22 24 26 24 22 162 255 255 12 255 255 204 22 24 24 22 22 24 26 28 0 
0 26 24 22 24 26 22 22 24 24 40 106 110 6 110 112 30 24 24 22 24 26 24 22 24 26 22 22 24 24 22 22 24 24 22 22 24 24 22 22 24 24 22 24 26 24 22 24 26 24 22 22 24 24 22 22 24 24 22 24 26 136 124 0 0 0 108 114 26 24 22 24 26 24 22 22 24 24 22 24 26 24 22 24 26 24 22 24 26 24 22 24 26 24 22 24 26 22 22 24 24 24 22 22 24 24 22 24 26 24 22 166 255 255 12 255 255 208 22 24 24 22 22 24 24 24 24 0 
0 22 22 24 24 22 22 26 24 22 24 46 124 128 4 126 128 38 24 24 24 22 22 24 24 22 22 26 24 22 24 26 24 22 24 26 24 22 24 26 24 22 24 26 24 22 24 26 24 22 24 26 24 22 24 26 24 22 24 26 24 126 116 0 0 0 98 104 22 22 24 26 24 22 24 26 24 22 24 26 24 22 24 24 22 22 24 24 22 22 24 24 22 22 24 24 22 22 26 24 22 24 24 22 22 24 24 24 22 22 168 255 255 12 255 255 210 24 26 24 22 24 26 24 22 24 24 0 
0 22 24 24 22 22 24 24 22 24 26 24 52 142 146 6 142 146 44 24 22 22 24 24 22 22 24 24 22 24 26 24 22 24 26 24 22 24 26 24 22 24 26 24 22 24 26 24 22 24 26 24 22 24 26 24 22 24 26 24 22 118 108 0 0 0 88 94 22 24 24 24 22 22 24 24 22 24 26 24 22 24 26 22 22 24 24 22 22 24 24 22 22 24 24 22 22 24 24 22 24 26 24 22 24 26 24 22 22 170 255 255 12 255 255 214 24 26 24 22 24 26 24 22 24 26 24 0 
0 26 26 26 26 26 26 26 26 26 26 26 26 60 160 166 8 160 164 48 26 26 26 26 26 26 26 26 26 26 26 26 26 26 26 26 26 26 26 26 26 26 26 26 26 26 26 26 26 26 26 24 24 26 26 26 26 26 26 26 26 110 98 0 0 0 80 88 26 26 26 26 24 24 26 26 24 26 26 24 24 26 26 26 28 26 26 26 26 26 26 26 26 26 26 26 26 26 26 26 26 26 26 26 26 26 26 26 172 255 255 12 255 255 220 26 26 26 26 26 26 26 26 26 26 26 26 0 
0 22 24 26 24 22 24 26 24 22 24 26 24 22 62 178 182 4 180 184 56 22 24 26 24 22 24 26 24 22 24 255 255 255 255 255 255 255 255 255 255 255 255 255 255 255 255 255 255 255 255 255 255 255 255 255 255 255 255 255 255 255 230 0 0 0 240 255 255 255 255 255 255 255 255 255 255 255 255 255 255 255 255 255 255 255 255 255 255 255 255 255 255 255 255 255 255 24 26 24 22 24 26 24 22 24 24 178 255 255 12 255 255 222 26 24 22 24 26 24 22 24 24 22 22 24 26 0 
0 24 26 24 22 24 26 24 22 24 26 24 22 24 26 72 196 200 6 198 202 62 24 24 22 22 24 24 22 24 26 255 255 255 255 255 255 255 255 255 255 255 255 255 255 255 255 255 255 255 255 255 255 255 255 255 255 255 255 255 255 255 255 0 0 0 255 255 255 255 255 255 255 255 255 255 255 255 255 255 255 255 255 255 255 255 255 255 255 255 255 255 255 255 255 255 255 26 24 22 24 26 24 22 24 26 182 255 255 12 255 255 226 26 24 22 24 26 24 22 24 26 22 22 24 24 24 0 
0 24 22 22 24 24 22 22 24 24 22 22 24 24 22 22 76 214 218 6 214 218 68 24 24 22 22 24 24 24 22 255 255 0 0 0 0 0 0 0 0 0 0 0 0 0 0 0 0 0 0 0 0 0 0 0 0 0 0 0 0 255 255 0 0 0 255 255 0 0 0 0 0 0 0 0 0 0 0 0 0 0 0 0 0 0 0 0 0 0 0 0 0 0 0 255 255 22 22 24 24 22 22 24 24 184 255 255 12 255 255 228 24 22 22 24 24 22 22 24 24 22 22 26 24 22 24 0 
0 22 22 24 24 22 22 24 24 22 22 24 24 22 22 24 24 82 232 236 6 232 236 74 24 22 24 26 24 22 22 255 255 0 0 0 0 0 0 0 0 0 0 0 0 0 0 0 0 0 0 0 0 0 0 0 0 0 0 0 0 255 255 0 0 0 255 255 0 0 0 0 0 0 0 0 0 0 0 0 0 0 0 0 0 0 0 0 0 0 0 0 0 0 0 255 255 22 24 24 22 22 24 24 188 255 255 12 255 255 232 24 22 22 24 24 22 22 24 24 22 22 24 24 22 24 28 0 
0 24 26 26 26 26 26 26 26 26 26 26 26 26 26 26 26 26 90 250 255 8 250 254 78 26 26 26 26 26 26 255 255 0 0 0 0 0 0 0 0 0 0 0 0 0 0 0 0 0 0 0 0 0 0 0 0 0 0 0 0 255 255 0 0 0 255 255 0 0 0 0 0 0 0 0 0 0 0 0 0 0 0 0 0 0 0 0 0 0 0 0 0 0 0 255 255 26 26 26 26 26 26 188 255 255 14 255 255 236 26 26 26 26 26 26 26 26 26 26 26 26 26 26 26 26 28 0 
0 22 22 24 26 24 22 24 26 24 22 24 26 24 22 24 26 24 22 92 255 255 6 255 255 86 22 24 24 22 22 255 255 0 0 0 0 0 0 0 0 0 0 0 0 0 0 0 0 0 0 0 0 0 0 0 0 0 0 0 0 255 255 0 0 0 255 255 0 0 0 0 0 0 0 0 0 0 0 0 0 0 0 0 0 0 0 0 0 0 0 0 0 0 0 255 255 22 24 26 24 22 192 255 255 12 255 255 236 22 24 26 24 22 24 26 24 22 24 26 24 22 24 26 24 22 24 0 
0 22 24 26 24 22 24 26 24 22 24 26 24 22 24 26 24 22 24 26 100 255 255 6 255 255 92 24 22 22 24 255 255 0 0 0 0 0 0 0 0 0 0 0 0 0 0 0 0 0 0 0 0 0 0 0 0 0 0 0 0 255 255 0 0 0 255 255 0 0 0 0 0 0 0 0 0 0 0 0 0 0 0 0 0 0 0 0 0 0 0 0 0 0 0 255 255 24 26 24 22 196 255 255 12 255 255 240 22 24 26 24 22 24 26 24 22 22 24 24 22 24 26 24 22 24 28 0 
0 24 26 24 22 24 26 24 22 24 24 22 22 24 24 22 22 24 24 22 22 104 255 255 6 255 255 98 24 26 24 255 255 0 0 0 0 0 0 0 0 0 0 0 0 0 0 0 0 0 0 0 0 0 0 0 0 0 0 0 0 255 255 0 0 0 255 255 0 0 0 0 0 0 0 0 0 0 0 0 0 0 0 0 0 0 0 0 0 0 0 0 0 0 0 255 255 26 24 22 198 255 255 12 255 255 240 22 24 24 22 22 24 26 24 22 24 22 22 24 24 24 22 22 24 24 24 0 
0 24 24 22 22 24 24 22 24 26 22 22 24 24 22 22 24 24 22 22 24 24 112 255 255 6 255 255 104 24 22 255 255 0 0 0 0 0 0 0 0 0 0 0 0 0 0 0 0 0 0 0 0 0 0 0 0 0 0 0 0 255 255 0 0 0 255 255 0 0 0 0 0 0 0 0 0 0 0 0 0 0 0 0 0 0 0 0 0 0 0 0 0 0 0 255 255 24 22 202 255 255 12 255 255 244 22 24 24 22 22 24 24 24 22 22 24 22 24 26 24 22 22 24 24 22 22 0 
0 22 24 24 22 22 24 24 24 22 22 26 24 22 24 26 24 22 24 26 24 22 24 118 255 255 6 255 255 110 24 255 255 0 0 0 0 0 0 0 0 0 0 0 0 0 0 0 0 0 0 0 0 0 0 0 0 0 0 0 0 255 255 0 0 0 255 255 0 0 0 0 0 0 0 0 0 0 0 0 0 0 0 0 0 0 0 0 0 0 0 0 0 0 0 255 255 22 204 255 255 12 255 255 246 24 26 24 22 24 26 24 22 24 24 22 22 24 26 24 22 24 26 24 22 24 26 0 
0 24 26 24 22 24 26 24 22 22 24 24 22 24 26 24 22 24 26 24 22 24 26 24 124 255 255 6 255 255 116 255 255 0 0 0 0 0 0 0 0 0 0 0 0 0 0 0 0 0 0 0 0 0 0 0 0 0 0 0 0 255 255 0 0 0 255 255 0 0 0 0 0 0 0 0 0 0 0 0 0 0 0 0 0 0 0 0 0 0 0 0 0 0 0 255 255 206 255 255 12 255 255 250 24 26 24 22 24 26 24 22 24 26 24 22 24 26 24 22 24 26 24 22 24 26 24 0 
0 26 26 26 26 26 26 26 26 26 26 26 26 26 26 26 26 26 26 26 26 26 26 26 26 132 255 255 8 255 255 255 255 0 0 0 0 0 0 0 0 0 0 0 0 0 0 0 0 0 0 0 0 0 0 0 0 0 0 0 0 255 255 0 0 0 255 255 0 0 0 0 0 0 0 0 0 0 0 0 0 0 0 0 0 0 0 0 0 0 0 0 0 0 0 255 255 255 255 12 255 255 255 26 26 26 26 26 26 26 26 26 26 26 26 26 26 26 26 26 26 26 26 26 26 26 26 0 
0 22 24 24 22 22 24 24 22 22 24 26 24 22 24 26 24 22 24 24 22 22 24 24 22 22 134 255 255 4 255 255 255 0 0 0 0 0 0 0 0 0 0 0 0 0 0 0 0 0 0 0 0 0 0 0 0 0 0 0 0 255 255 0 0 0 255 255 0 0 0 0 0 0 0 0 0 0 0 0 0 0 0 0 0 0 0 0 0 0 0 0 0 0 0 255 255 255 12 255 255 255 26 24 22 24 26 24 22 24 24 22 22 24 24 22 22 24 24 22 22 24 26 24 22 24 26 0 
0 24 26 22 22 24 24 22 22 24 24 24 22 22 24 24 22 24 26 22 22 24 24 22 22 24 24 142 255 255 6 255 255 255 0 0 0 0 0 0 0 0 0 0 0 0 0 0 0 0 0 0 0 0 0 0 0 0 0 0 0 255 255 0 0 0 255 255 0 0 0 0 0 0 0 0 0 0 0 0 0 0 0 0 0 0 0 0 0 0 0 0 0 0 255 255 255 12 255 255 255 26 24 22 24 26 24 22 24 26 22 22 24 24 22 22 24 24 22 22 24 24 24 22 22 24 24 0 
0 24 22 22 26 24 22 24 26 24 22 24 24 22 22 24 24 24 22 22 26 24 22 24 26 24 22 24 148 255 255 255 255 255 255 0 0 0 0 0 0 0 0 0 0 0 0 0 0 0 0 0 0 0 0 0 0 0 0 0 0 255 255 0 0 0 255 255 0 0 0 0 0 0 0 0 0 0 0 0 0 0 0 0 0 0 0 0 0 0 0 0 0 255 255 255 194 255 255 255 24 22 22 24 24 22 22 24 24 22 22 26 24 22 24 26 24 22 24 26 24 22 24 24 22 22 24 0 
0 22 22 24 24 22 24 26 24 22 24 26 24 22 24 26 24 22 22 24 24 22 24 26 24 22 24 26 24 154 255 255 255 255 255 255 0 0 0 0 0 0 0 0 0 0 0 0 0 0 0 0 0 0 0 0 0 0 0 0 0 255 255 0 0 0 255 255 0 0 0 0 0 0 0 0 0 0 0 0 0 0 0 0 0 0 0 0 0 0 0 0 255 255 255 190 255 255 255 24 22 22 24 24 22 22 24 24 22 22 24 24 22 24 26 24 22 24 26 24 22 24 26 24 22 24 28 0 
0 26 26 26 26 26 26 26 26 26 26 26 26 26 26 26 26 26 26 26 26 26 26 26 26 26 26 26 26 26 162 255 255 0 255 255 255 0 0 0 0 0 0 0 0 0 0 0 0 0 0 0 0 0 0 0 0 0 0 0 0 255 255 0 0 0 255 255 0 0 0 0 0 0 0 0 0 0 0 0 0 0 0 0 0 0 0 0 0 0 0 255 255 255 0 255 255 255 26 26 26 26 26 26 26 26 26 26 26 26 26 26 26 26 26 26 26 26 26 26 26 26 26 26 26 26 28 0 
0 24 22 24 26 24 22 24 26 24 22 24 24 22 22 24 24 22 22 24 26 24 22 24 26 24 22 24 24 22 22 255 255 255 0 255 255 255 0 0 0 0 0 0 0 0 0 0 0 0 0 0 0 0 0 0 0 0 0 0 0 255 255 0 0 0 255 255 0 0 0 0 0 0 0 0 0 0 0 0 0 0 0 0 0 0 0 0 0 0 255 255 255 0 255 255 255 22 24 24 22 22 24 26 24 22 24 26 24 22 24 26 24 22 24 26 24 22 24 24 22 22 24 24 22 22 24 0 
0 22 24 26 24 22 24 26 24 22 24 26 22 22 24 24 22 22 24 24 24 22 22 24 24 22 24 26 22 22 24 255 255 255 255 0 255 255 255 0 0 0 0 0 0 0 0 0 0 0 0 0 0 0 0 0 0 0 0 0 0 255 255 0 0 0 255 255 0 0 0 0 0 0 0 0 0 0 0 0 0 0 0 0 0 0 0 0 0 255 255 255 0 255 255 255 255 24 26 22 22 24 24 24 22 22 24 24 22 24 26 24 22 24 26 24 22 24 26 22 22 24 24 22 22 24 24 0 
0 24 24 22 22 24 24 22 22 24 24 22 22 26 24 22 24 26 24 22 24 24 22 22 24 24 24 22 22 26 24 255 255 255 255 255 0 255 255 255 0 0 0 0 0 0 0 0 0 0 0 0 0 0 0 0 0 0 0 0 0 255 255 0 0 0 255 255 0 0 0 0 0 0 0 0 0 0 0 0 0 0 0 0 0 0 0 0 255 255 255 0 255 255 255 255 255 24 22 22 26 24 22 24 24 22 22 24 24 24 22 22 24 24 22 22 24 24 22 22 26 24 22 24 26 24 22 0 
0 24 22 22 24 24 22 22 24 24 22 22 24 24 22 24 26 24 22 24 26 24 22 24 26 24 22 22 24 24 22 255 255 0 255 255 255 0 255 255 255 0 0 0 0 0 0 0 0 0 0 0 0 0 0 0 0 0 0 0 0 255 255 0 0 0 255 255 0 0 0 0 0 0 0 0 0 0 0 0 0 0 0 0 0 0 0 255 255 255 0 255 255 255 0 255 255 22 22 24 24 22 24 26 24 22 24 26 24 22 22 24 24 22 22 24 24 22 22 24 24 22 24 26 24 22 24 0 
0 26 26 26 26 26 26 26 26 26 26 26 26 26 26 26 26 26 26 26 26 26 26 26 26 26 26 26 26 26 26 255 255 0 0 255 255 255 0 255 255 255 0 0 0 0 0 0 0 0 0 0 0 0 0 0 0 0 0 0 0 255 255 0 0 0 255 255 0 0 0 0 0 0 0 0 0 0 0 0 0 0 0 0 0 0 255 255 255 0 255 255 255 0 0 255 255 26 26 26 26 26 26 26 26 26 26 26 26 26 26 26 26 26 26 26 26 26 26 26 26 26 26 26 26 26 26 0 
0 26 24 22 24 26 24 22 24 26 24 22 24 26 24 22 24 26 24 22 24 24 22 22 24 26 24 22 24 26 24 255 255 0 0 0 255 255 255 0 255 255 255 0 0 0 0 0 0 0 0 0 0 0 0 0 0 0 0 0 0 255 255 0 0 0 255 255 0 0 0 0 0 0 0 0 0 0 0 0 0 0 0 0 0 255 255 255 0 255 255 255 0 0 0 255 255 24 22 24 26 24 22 24 26 24 22 24 24 22 22 24 26 24 22 24 26 24 22 24 26 24 22 24 26 24 22 0 
0 24 22 22 24 24 22 24 26 24 22 24 26 24 22 24 26 24 22 24 26 22 22 24 24 24 22 22 24 24 22 255 255 0 0 0 0 255 255 255 0 255 255 255 0 0 0 0 0 0 0 0 0 0 0 0 0 0 0 0 0 255 255 0 0 0 255 255 0 0 0 0 0 0 0 0 0 0 0 0 0 0 0 0 255 255 255 0 255 255 255 0 0 0 0 255 255 22 24 26 24 22 24 26 24 22 24 26 22 22 24 24 24 22 22 24 24 22 24 26 24 22 24 26 24 22 24 0 
0 22 24 22 22 24 24 24 22 22 24 24 22 22 24 24 22 22 24 24 22 22 26 24 22 24 24 22 22 24 24 255 255 0 0 0 0 0 255 255 255 0 255 255 255 0 0 0 0 0 0 0 0 0 0 0 0 0 0 0 0 255 255 0 0 0 255 255 0 0 0 0 0 0 0 0 0 0 0 0 0 0 0 255 255 255 0 255 255 255 0 0 0 0 0 255 255 24 24 22 22 24 24 22 22 24 24 22 22 26 24 22 24 24 22 22 24 24 24 22 22 24 24 22 22 24 26 0 
0 22 24 22 24 26 24 22 22 24 24 22 22 24 24 22 22 24 24 22 22 24 24 22 24 26 24 22 24 26 24 255 255 0 0 0 0 0 0 255 255 255 0 255 255 255 0 0 0 0 0 0 0 0 0 0 0 0 0 0 0 255 255 0 0 0 255 255 0 0 0 0 0 0 0 0 0 0 0 0 0 0 255 255 255 0 255 255 255 0 0 0 0 0 0 255 255 24 22 22 24 24 22 22 24 24 22 22 24 24 22 24 26 24 22 24 26 24 22 22 24 24 22 22 24 24 24 0 
0 24 26 26 26 26 26 26 26 26 26 26 26 26 26 26 26 26 26 26 26 26 26 26 26 26 26 26 26 26 26 255 255 0 0 0 0 0 0 0 255 255 255 0 255 255 255 0 0 0 0 0 0 0 0 0 0 0 0 0 0 255 255 0 0 0 255 255 0 0 0 0 0 0 0 0 0 0 0 0 0 255 255 255 0 255 255 255 0 0 0 0 0 0 0 255 255 26 26 26 26 26 26 26 26 26 26 26 26 26 26 26 26 26 26 26 26 26 26 26 26 26 26 26 26 26 28 0 
0 24 26 24 22 24 26 24 22 24 26 24 22 24 26 24 22 24 26 24 22 24 26 24 22 24 26 24 22 24 24 255 255 0 0 0 0 0 0 0 0 255 255 255 0 255 255 255 0 0 0 0 0 0 0 0 0 0 0 0 0 255 255 0 0 0 255 255 0 0 0 0 0 0 0 0 0 0 0 0 255 255 255 0 255 255 255 0 0 0 0 0 0 0 0 255 255 26 24 22 24 26 24 22 24 26 24 22 24 26 24 22 24 26 24 22 24 24 22 22 24 26 24 22 24 26 28 0 
0 26 24 22 24 26 24 22 24 26 24 22 22 24 24 22 24 26 24 22 24 26 24 22 24 26 24 22 24 26 22 255 255 0 0 0 0 0 0 0 0 0 255 255 255 0 255 255 255 0 0 0 0 0 0 0 0 0 0 0 0 255 255 0 0 0 255 255 0 0 0 0 0 0 0 0 0 0 0 255 255 255 0 255 255 255 0 0 0 0 0 0 0 0 0 255 255 24 22 24 26 24 22 24 26 24 22 24 26 24 22 24 26 24 22 24 26 22 22 24 24 24 22 22 24 24 24 0 
0 22 22 24 24 22 22 24 26 24 22 24 22 22 24 24 24 22 22 24 24 22 22 24 24 22 22 24 24 22 22 255 255 0 0 0 0 0 0 0 0 0 0 255 255 255 0 255 255 255 0 0 0 0 0 0 0 0 0 0 0 255 255 0 0 0 255 255 0 0 0 0 0 0 0 0 0 0 255 255 255 0 255 255 255 0 0 0 0 0 0 0 0 0 0 255 255 22 24 26 24 22 24 24 22 22 24 24 22 22 24 24 22 22 24 24 22 22 26 24 22 24 24 22 22 24 24 0 
0 22 24 24 22 22 24 24 24 22 22 24 22 24 26 24 22 22 24 24 22 22 24 24 22 22 24 24 22 22 24 255 255 0 0 0 0 0 0 0 0 0 0 0 255 255 255 0 255 255 255 0 0 0 0 0 0 0 0 0 0 255 255 0 0 0 255 255 0 0 0 0 0 0 0 0 0 255 255 255 0 255 255 255 0 0 0 0 0 0 0 0 0 0 0 255 255 24 26 24 22 24 26 22 22 24 24 22 22 24 24 22 22 24 24 22 22 24 24 22 24 26 24 22 24 26 24 0 
0 26 24 22 24 26 24 22 24 24 22 22 24 26 24 22 24 26 24 22 24 26 24 22 24 26 24 22 24 26 24 255 255 0 0 0 0 0 0 0 0 0 0 0 0 255 255 255 0 255 255 255 0 0 0 0 0 0 0 0 0 255 255 0 0 0 255 255 0 0 0 0 0 0 0 0 255 255 255 0 255 255 255 0 0 0 0 0 0 0 0 0 0 0 0 248 254 24 22 22 24 24 22 22 26 24 22 24 26 24 22 24 26 24 22 24 26 24 22 24 26 24 22 24 26 24 22 0 
0 24 22 24 26 24 22 24 26 24 22 24 26 24 22 24 26 24 22 24 26 24 22 24 26 24 22 24 26 24 22 255 255 0 0 0 0 0 0 0 0 0 0 0 0 0 255 255 255 0 255 255 255 0 0 0 0 0 0 0 0 255 255 0 0 0 255 255 0 0 0 0 0 0 0 255 255 255 0 255 255 255 0 0 0 0 0 0 0 0 0 0 0 0 0 240 244 22 22 24 24 22 22 24 24 22 24 26 24 22 24 26 24 22 24 26 24 22 24 26 24 22 24 26 24 22 24 0 
0 26 26 26 26 26 26 26 26 26 26 26 26 26 26 26 26 26 26 26 26 26 26 26 26 26 26 26 26 26 26 255 255 0 0 0 0 0 0 0 0 0 0 0 0 0 0 255 255 255 0 255 255 255 0 0 0 0 0 0 0 255 255 0 0 0 255 255 0 0 0 0 0 0 255 255 255 0 255 255 255 0 0 0 0 0 0 0 0 0 0 0 0 0 0 232 238 26 26 26 26 26 26 26 26 26 26 26 26 26 26 26 26 26 26 26 26 26 26 26 26 26 26 26 26 26 26 0 
0 26 24 22 24 24 22 22 24 24 22 22 24 26 24 22 24 26 24 22 24 24 22 22 24 24 22 22 24 24 22 255 255 0 0 0 0 0 0 0 0 0 0 0 0 0 0 0 255 255 255 0 255 255 255 0 0 0 0 0 0 255 255 0 0 0 255 255 0 0 0 0 0 255 255 255 0 255 255 255 0 0 0 0 0 0 0 0 0 0 0 0 0 0 0 222 228 22 22 24 26 24 22 24 26 24 22 24 26 24 22 24 24 22 22 24 24 22 22 24 24 22 22 24 24 22 22 0 
0 24 22 24 26 22 22 24 24 22 22 24 24 24 22 22 24 24 22 24 26 22 22 24 24 22 22 24 24 22 22 255 255 0 0 0 0 0 0 0 0 0 0 0 0 0 0 0 0 255 255 255 0 255 255 255 0 0 0 0 0 255 255 0 0 0 255 255 0 0 0 0 255 255 255 0 255 255 255 0 0 0 0 0 0 0 0 0 0 0 0 0 0 0 0 212 218 22 24 24 24 22 22 24 24 22 24 26 24 22 24 26 22 22 24 24 22 22 24 24 22 22 24 24 22 22 26 0 
0 22 24 24 22 22 26 24 22 24 26 24 22 24 24 22 22 24 24 24 22 22 26 24 22 24 26 24 22 24 26 255 255 255 255 255 255 255 255 255 255 255 255 255 255 255 255 255 255 255 255 255 255 162 255 255 255 255 255 255 255 255 255 0 0 0 255 255 255 255 255 255 255 255 126 255 255 250 246 244 242 238 234 232 230 226 222 220 218 214 210 208 206 202 198 255 184 26 24 22 24 24 22 22 24 24 24 22 22 24 24 22 22 26 24 22 24 26 24 22 24 26 24 22 24 26 28 0 
0 24 24 22 22 24 24 22 24 26 24 22 24 26 24 22 24 26 24 22 22 24 24 22 24 26 24 22 24 26 24 184 255 255 255 255 255 255 255 255 255 255 255 255 255 255 255 255 255 255 255 255 255 255 154 255 255 255 255 255 255 255 255 0 0 0 255 255 255 255 255 255 255 124 255 255 244 242 238 236 234 232 228 224 222 220 216 212 210 208 204 200 198 196 192 180 76 24 22 24 26 24 22 24 26 24 22 22 24 24 22 22 24 24 22 24 26 24 22 24 26 24 22 24 26 24 24 0 
0 26 26 26 26 26 26 26 26 26 26 26 26 26 26 26 26 26 26 26 26 26 26 26 26 26 26 26 26 26 26 26 26 26 26 26 26 26 26 26 26 26 26 26 26 26 26 26 24 26 26 24 255 255 255 8 255 255 255 26 26 255 255 0 0 0 255 255 26 255 255 255 14 255 255 255 26 26 24 26 26 26 26 26 26 26 26 26 26 26 26 26 26 26 26 26 26 26 26 26 26 26 26 26 26 26 26 26 26 26 26 26 26 26 26 26 26 26 26 26 26 26 26 26 26 26 28 0 
0 24 26 24 22 24 26 24 22 24 26 24 22 24 24 22 22 24 24 22 22 24 26 24 22 24 26 24 22 24 24 22 22 24 24 22 22 24 24 22 22 24 24 22 22 24 24 22 22 26 24 22 24 255 255 255 4 255 255 255 22 255 255 0 0 0 255 255 255 255 255 12 255 255 255 22 24 24 22 22 24 26 24 22 24 26 24 22 24 26 24 22 24 26 24 22 24 26 24 22 24 26 24 22 24 24 22 22 24 26 24 22 24 26 24 22 24 26 24 22 24 24 22 22 24 24 24 0 
0 24 24 22 24 26 24 22 24 26 24 22 24 26 22 22 24 24 22 22 24 24 24 22 22 24 24 22 24 26 22 22 24 24 22 22 24 24 22 22 24 24 22 22 24 24 22 22 24 24 22 24 26 24 255 255 255 6 255 255 255 255 255 0 0 0 255 255 255 255 12 255 255 255 22 24 26 24 22 24 26 24 22 24 26 24 22 24 26 24 22 24 26 24 22 24 26 24 22 24 26 24 22 24 26 22 22 24 24 24 22 22 24 24 22 24 26 24 22 24 26 22 22 24 24 22 22 0 
0 22 24 24 24 22 22 24 24 22 22 24 24 22 22 26 24 22 24 26 24 22 24 24 22 22 24 24 24 22 22 26 24 22 24 26 24 22 24 26 24 22 24 26 24 22 24 26 24 22 24 26 24 22 24 255 255 255 6 255 255 255 255 0 0 0 255 255 255 12 255 255 255 22 24 24 22 22 24 26 24 22 24 26 24 22 24 24 22 22 24 24 22 22 24 24 22 22 24 24 22 22 24 24 22 22 26 24 22 24 24 22 22 24 24 24 22 22 24 24 22 22 26 24 22 24 26 0 
0 24 26 24 22 22 24 24 22 22 24 24 22 22 24 24 22 24 26 24 22 24 26 24 22 24 26 24 22 22 24 24 22 24 26 24 22 24 26 24 22 24 26 24 22 24 26 24 22 24 26 24 22 24 26 24 255 255 255 4 255 255 255 0 0 0 255 255 12 255 255 255 22 24 24 22 22 24 24 24 22 22 24 24 22 24 26 22 22 24 24 22 22 24 24 22 22 24 24 22 22 24 24 22 22 24 24 22 24 26 24 22 24 26 24 22 22 24 24 22 22 24 24 22 24 26 24 0 
0 26 26 26 26 26 26 26 26 26 26 26 26 26 26 26 26 26 26 26 26 26 26 26 26 26 26 26 26 26 26 26 26 26 26 26 26 26 26 26 26 26 26 26 26 26 26 26 26 26 26 26 26 26 26 26 26 255 255 255 8 255 255 0 0 0 255 255 255 255 255 26 28 26 26 26 26 26 26 26 24 24 26 26 24 26 26 24 26 26 26 26 26 26 26 26 26 26 26 26 26 26 26 26 26 26 26 26 26 26 26 26 26 26 26 26 26 26 26 26 26 26 26 26 26 26 26 0 
0 22 24 26 24 22 24 26 24 22 24 26 24 22 24 26 24 22 24 26 24 22 24 24 22 22 24 24 22 22 24 26 24 22 24 26 24 22 24 24 22 22 24 24 22 22 24 24 22 22 24 24 22 22 24 24 22 22 255 255 255 255 255 0 0 0 255 255 255 255 24 24 22 22 26 24 22 24 26 24 22 24 26 24 22 24 24 22 22 24 26 24 22 24 26 24 22 24 26 24 22 24 26 24 22 24 26 24 22 24 26 24 22 24 24 22 22 24 26 24 22 24 26 24 22 24 26 0 
0 24 26 24 22 24 26 24 22 24 26 24 22 24 26 24 22 24 26 24 22 24 26 22 22 24 24 22 22 24 24 24 22 22 24 24 22 24 26 22 22 24 24 22 22 24 24 22 22 24 24 22 22 24 24 22 22 24 24 255 255 255 255 0 0 0 255 255 255 24 24 22 22 24 24 22 24 26 24 22 24 26 24 22 24 26 24 22 24 26 24 22 24 26 24 22 24 26 24 22 24 26 24 22 24 26 24 22 24 26 24 22 24 26 22 22 24 24 24 22 22 24 24 22 24 26 24 0 
0 26 24 22 24 24 22 22 24 24 22 22 24 24 22 22 24 24 22 22 24 24 22 22 26 24 22 24 26 24 22 24 24 22 22 24 24 24 22 22 26 24 22 24 26 24 22 24 26 24 22 24 26 24 22 24 26 24 22 24 255 255 255 0 0 0 255 255 26 24 22 24 26 24 22 24 26 24 22 24 24 22 22 24 24 22 22 24 26 24 22 24 26 24 22 24 24 22 22 24 24 22 22 24 24 22 22 24 24 22 22 24 24 22 22 26 24 22 24 24 22 22 24 24 24 22 22 0 
0 24 22 22 24 22 22 24 24 22 22 24 24 22 22 24 24 22 22 24 24 22 22 24 24 22 24 26 24 22 24 26 24 22 24 26 24 22 22 24 24 22 24 26 24 22 24 26 24 22 24 26 24 22 24 26 24 22 24 26 255 255 255 0 0 0 255 255 24 22 24 26 24 22 24 26 24 22 24 26 22 22 24 24 22 22 24 24 24 22 22 24 24 22 24 26 22 22 24 24 22 22 24 24 22 22 24 24 22 22 24 24 22 22 24 24 22 24 26 24 22 24 26 24 22 22 26 0 
0 26 24 24 26 26 26 26 26 26 26 26 26 26 26 26 26 26 26 26 26 26 26 26 26 26 26 26 26 26 26 26 26 26 26 26 26 26 26 26 26 26 26 26 26 26 26 26 26 26 26 26 26 26 26 26 26 26 26 255 255 255 255 0 0 0 255 255 255 24 26 26 26 26 26 26 26 26 26 26 26 28 26 26 26 26 26 26 26 24 24 26 26 24 26 26 24 26 26 26 26 26 26 26 26 26 26 26 26 26 26 26 26 26 26 26 26 26 26 26 26 26 26 26 26 26 28 0 
0 24 22 24 26 24 22 24 26 24 22 24 26 24 22 24 26 24 22 24 26 24 22 24 26 24 22 24 26 24 22 24 24 22 22 24 24 22 22 24 26 24 22 24 26 24 22 24 24 22 22 24 24 22 22 24 24 22 255 255 255 255 255 0 0 0 255 255 255 255 24 24 24 22 22 24 24 22 22 24 24 22 22 26 24 22 24 26 24 22 24 26 24 22 24 24 22 22 24 26 24 22 24 26 24 22 24 26 24 22 24 26 24 22 24 26 24 22 24 26 24 22 24 24 22 22 24 0 
0 22 24 26 24 22 24 26 24 22 24 26 24 22 24 26 24 22 24 26 24 22 24 26 24 22 24 26 24 22 24 26 22 22 24 24 22 22 24 24 24 22 22 24 24 22 24 26 22 22 24 24 22 22 24 24 22 255 255 255 12 255 255 0 0 0 255 255 255 255 255 24 22 22 24 24 22 22 24 24 22 22 24 24 22 24 26 24 22 24 26 24 22 24 26 24 22 24 26 24 22 24 26 24 22 24 26 24 22 24 26 24 22 24 26 24 22 24 26 24 22 24 26 22 22 24 26 0 
0 24 24 22 22 24 24 22 22 24 26 24 22 24 24 22 22 24 24 22 22 24 24 22 22 24 24 22 22 24 24 22 22 26 24 22 24 26 24 22 24 24 22 22 24 24 24 22 22 26 24 22 24 26 24 22 255 255 255 12 255 255 255 0 0 0 255 255 6 255 255 255 24 26 24 22 24 26 24 22 24 26 24 22 24 26 24 22 24 24 22 22 24 24 22 22 24 26 24 22 24 26 24 22 24 24 22 22 24 24 22 22 24 24 22 22 24 24 22 22 24 24 22 22 26 24 24 0 
0 24 22 22 24 24 22 22 24 24 24 22 22 24 22 22 24 24 22 22 24 24 22 22 24 24 22 22 24 24 22 22 24 24 22 24 26 24 22 24 26 24 22 24 26 24 22 22 24 24 22 24 26 24 22 255 255 255 12 255 255 255 255 0 0 0 255 255 255 6 255 255 255 24 22 24 26 24 22 24 26 24 22 24 26 24 22 24 26 22 22 24 24 22 22 24 24 24 22 22 24 24 22 24 26 22 22 24 24 22 22 24 24 22 22 24 24 22 22 24 24 22 22 24 24 22 24 0 
0 26 26 26 26 26 26 26 26 26 26 24 24 26 26 26 26 26 26 26 26 26 26 26 26 26 26 26 26 26 26 26 26 26 26 26 26 26 26 26 26 26 26 26 26 26 26 26 26 26 26 26 26 26 255 255 255 14 255 255 255 255 255 0 0 0 255 255 255 255 8 255 255 255 26 26 26 24 24 26 26 26 26 26 26 26 26 26 26 26 28 26 26 26 26 26 26 26 24 24 26 26 24 26 26 24 26 26 26 26 26 26 26 26 26 26 26 26 26 26 26 26 26 26 26 26 28 0 
0 0 0 0 0 0 0 0 0 0 0 0 0 0 0 0 0 0 0 0 0 0 0 0 0 0 0 0 0 0 0 0 0 0 0 0 0 0 0 0 0 0 0 0 0 0 0 0 0 0 0 0 0 0 0 0 0 0 0 0 0 0 0 0 0 0 0 0 0 0 0 0 0 0 0 0 0 0 0 0 0 0 0 0 0 0 0 0 0 0 0 0 0 0 0 0 0 0 0 0 0 0 0 0 0 0 0 0 0 0 0 0 0 0 0 0 0 0 0 0 0 0 0 0 0 0 0 0 
