P2
128 72
255
0 0 0 0 0 0 0 0 0 0 0 0 0 0 0 0 0 0 0 0 0 0 0 0 0 0 0 0 0 0 0 0 0 0 0 0 0 0 0 0 0 0 0 0 0 0 0 0 0 0 0 0 0 0 0 0 0 0 0 0 0 0 0 0 0 0 0 0 0 0 0 0 0 0 0 0 0 0 0 0 0 0 0 0 0 0 0 0 0 0 0 0 0 0 0 0 0 0 0 0 0 0 0 0 0 0 0 0 0 0 0 0 0 0 0 0 0 0 0 0 0 0 0 0 0 0 0 0 
0 0 0 0 0 0 0 0 0 0 0 0 0 0 0 0 0 0 0 0 0 0 0 0 0 0 0 0 0 0 0 0 0 0 0 0 0 0 0 0 0 0 0 0 0 0 0 0 0 0 0 0 0 0 0 0 0 0 0 0 0 0 0 0 0 0 0 0 0 0 0 0 0 0 0 0 0 0 0 0 0 0 0 0 0 0 0 0 0 0 0 0 0 0 0 0 0 0 0 0 0 0 0 0 0 0 0 0 0 0 0 0 0 0 0 0 0 0 0 0 0 0 0 0 0 0 0 0 
0 0 100 200 200 200 200 154 204 204 204 204 204 204 204 204 154 200 200 200 200 200 200 200 200 200 200 204 204 204 204 204 154 104 104 104 104 200 200 200 200 200 200 200 200 200 200 154 154 104 104 104 104 104 104 154 154 200 200 200 200 200 200 200 200 200 200 104 104 104 104 154 204 204 204 204 204 200 200 200 200 200 200 200 200 200 200 154 204 204 204 204 204 204 204 204 154 200 200 200 200 200 200 200 200 200 200 204 204 204 204 204 154 104 104 104 104 200 200 200 200 200 200 200 200 100 0 0 
0 0 200 255 200 200 255 255 254 204 204 204 204 204 204 254 255 255 200 200 200 200 200 200 200 200 255 255 204 204 204 254 204 104 104 104 255 255 200 200 200 200 200 200 200 200 255 255 204 104 104 104 104 104 104 54 255 255 200 200 200 200 200 200 200 200 255 255 104 104 104 204 254 204 204 204 255 255 200 200 200 200 200 200 200 200 255 255 254 204 204 204 204 204 204 254 255 255 200 200 200 200 200 200 200 200 255 255 204 204 204 254 204 104 104 104 255 255 200 200 200 200 200 200 255 200 0 0 
0 0 200 200 152 255 255 252 100 0 0 0 0 0 202 255 255 152 0 0 0 0 0 0 202 255 255 202 0 0 0 100 100 0 152 255 255 152 0 0 0 0 0 0 202 255 255 102 100 0 0 0 0 0 152 255 255 202 0 0 0 0 0 0 152 255 255 152 0 0 0 100 100 0 202 255 255 202 0 0 0 0 0 0 152 255 255 252 100 0 0 0 0 0 202 255 255 152 0 0 0 0 0 0 202 255 255 202 0 0 0 100 100 0 152 255 255 152 0 0 0 0 0 0 200 200 0 0 
0 0 200 200 255 255 152 100 100 0 0 0 0 202 255 255 202 0 0 0 0 0 0 202 255 255 202 0 0 0 0 100 100 152 255 255 152 0 0 0 0 0 0 202 255 255 202 100 100 0 0 0 0 152 255 255 152 0 0 0 0 0 0 152 255 255 152 0 0 0 0 100 100 202 255 255 202 0 0 0 0 0 0 152 255 255 152 100 100 0 0 0 0 202 255 255 202 0 0 0 0 0 0 202 255 255 202 0 0 0 0 100 100 152 255 255 152 0 0 0 0 0 0 202 255 200 0 0 
0 0 200 255 255 152 0 100 100 0 0 0 202 255 255 202 0 0 0 0 0 0 152 255 255 202 0 0 0 0 0 100 252 255 255 152 0 0 0 0 0 0 202 255 255 202 0 100 100 0 0 0 152 255 255 152 0 0 0 0 0 0 202 255 255 152 0 0 0 0 0 100 102 255 255 202 0 0 0 0 0 0 152 255 255 152 0 100 100 0 0 0 202 255 255 202 0 0 0 0 0 0 152 255 255 202 0 0 0 0 0 100 252 255 255 152 0 0 0 0 0 0 202 255 255 204 0 0 
0 0 154 255 252 100 100 100 100 100 100 252 255 255 202 0 0 0 0 0 0 202 255 255 152 100 100 100 100 100 100 255 255 255 152 0 0 0 0 0 0 152 255 255 102 100 100 100 100 100 100 102 255 255 152 0 0 0 0 0 0 152 255 255 202 100 100 100 100 100 100 52 255 255 202 0 0 0 0 0 0 202 255 255 252 100 100 100 100 100 100 252 255 255 202 0 0 0 0 0 0 202 255 255 152 100 100 100 100 100 100 255 255 255 152 0 0 0 0 0 0 152 255 255 104 204 0 0 
0 0 204 254 100 100 100 100 100 100 252 255 255 202 0 0 0 0 0 0 202 255 255 152 100 100 100 100 100 100 252 255 255 152 0 0 0 0 0 0 152 255 255 102 100 100 100 100 100 100 102 255 255 152 0 0 0 0 0 0 152 255 255 202 100 100 100 100 100 100 102 255 255 202 0 0 0 0 0 0 202 255 255 252 100 100 100 100 100 100 252 255 255 202 0 0 0 0 0 0 202 255 255 152 100 100 100 100 100 100 252 255 255 152 0 0 0 0 0 0 152 255 255 102 204 154 0 0 
0 0 204 204 0 0 0 100 100 152 255 255 152 0 0 0 0 0 0 202 255 255 202 100 100 0 0 0 0 152 255 255 152 0 0 0 0 0 0 152 255 255 152 0 0 0 0 100 100 202 255 255 202 0 0 0 0 0 0 152 255 255 152 100 100 0 0 0 0 202 255 255 202 0 0 0 0 0 0 202 255 255 202 0 0 0 0 100 100 152 255 255 152 0 0 0 0 0 0 202 255 255 202 100 100 0 0 0 0 152 255 255 152 0 0 0 0 0 0 152 255 255 152 0 104 104 0 0 
0 0 204 204 0 0 0 100 252 255 255 152 0 0 0 0 0 0 202 255 255 202 0 100 100 0 0 0 152 255 255 152 0 0 0 0 0 0 202 255 255 152 0 0 0 0 0 100 102 255 255 202 0 0 0 0 0 0 152 255 255 152 0 100 100 0 0 0 202 255 255 202 0 0 0 0 0 0 152 255 255 202 0 0 0 0 0 100 252 255 255 152 0 0 0 0 0 0 202 255 255 202 0 100 100 0 0 0 152 255 255 152 0 0 0 0 0 0 202 255 255 152 0 0 104 104 0 0 
0 0 204 204 0 0 0 252 255 255 152 0 0 0 0 0 0 202 255 255 202 0 0 100 100 0 0 152 255 255 152 0 0 0 0 0 0 202 255 255 102 0 0 0 0 0 0 102 255 255 202 0 0 0 0 0 0 152 255 255 152 0 0 100 100 0 0 202 255 255 202 0 0 0 0 0 0 152 255 255 252 0 0 0 0 0 0 252 255 255 152 0 0 0 0 0 0 202 255 255 202 0 0 100 100 0 0 152 255 255 152 0 0 0 0 0 0 202 255 255 102 0 0 0 104 104 0 0 
0 0 204 204 0 0 202 255 255 152 0 0 0 0 0 0 202 255 255 202 0 0 0 100 100 0 152 255 255 152 0 0 0 0 0 0 202 255 255 102 100 0 0 0 0 0 152 255 255 202 0 0 0 0 0 0 152 255 255 152 0 0 0 100 100 0 202 255 255 202 0 0 0 0 0 0 152 255 255 252 100 0 0 0 0 0 202 255 255 152 0 0 0 0 0 0 202 255 255 202 0 0 0 100 100 0 152 255 255 152 0 0 0 0 0 0 202 255 255 102 100 0 0 0 104 104 0 0 
0 0 204 204 0 202 255 255 202 0 0 0 0 0 0 202 255 255 202 0 0 0 0 100 100 152 255 255 152 0 0 0 0 0 0 202 255 255 202 100 100 0 0 0 0 152 255 255 152 0 0 0 0 0 0 152 255 255 152 0 0 0 0 100 100 202 255 255 202 0 0 0 0 0 0 152 255 255 152 100 100 0 0 0 0 202 255 255 202 0 0 0 0 0 0 202 255 255 202 0 0 0 0 100 100 152 255 255 152 0 0 0 0 0 0 202 255 255 202 100 100 0 0 0 104 104 0 0 
0 0 204 204 202 255 255 202 0 0 0 0 0 0 152 255 255 202 0 0 0 0 0 100 252 255 255 152 0 0 0 0 0 0 202 255 255 202 0 100 100 0 0 0 152 255 255 152 0 0 0 0 0 0 202 255 255 152 0 0 0 0 0 100 102 255 255 202 0 0 0 0 0 0 152 255 255 152 0 100 100 0 0 0 202 255 255 202 0 0 0 0 0 0 152 255 255 202 0 0 0 0 0 100 252 255 255 152 0 0 0 0 0 0 202 255 255 202 0 100 100 0 0 0 104 104 0 0 
0 0 204 254 255 255 202 0 0 0 0 0 0 202 255 255 152 100 100 100 100 100 100 255 255 255 152 0 0 0 0 0 0 152 255 255 102 100 100 100 100 100 100 102 255 255 152 0 0 0 0 0 0 152 255 255 202 100 100 100 100 100 100 52 255 255 202 0 0 0 0 0 0 202 255 255 252 100 100 100 100 100 100 252 255 255 202 0 0 0 0 0 0 202 255 255 152 100 100 100 100 100 100 255 255 255 152 0 0 0 0 0 0 152 255 255 102 100 100 100 100 100 100 102 255 104 0 0 
0 0 154 255 255 202 0 0 0 0 0 0 202 255 255 152 100 100 100 100 100 100 252 255 255 152 0 0 0 0 0 0 152 255 255 102 100 100 100 100 100 100 102 255 255 152 0 0 0 0 0 0 152 255 255 202 100 100 100 100 100 100 102 255 255 202 0 0 0 0 0 0 202 255 255 252 100 100 100 100 100 100 252 255 255 202 0 0 0 0 0 0 202 255 255 152 100 100 100 100 100 100 252 255 255 152 0 0 0 0 0 0 152 255 255 102 100 100 100 100 100 100 102 255 255 200 0 0 
0 0 200 255 152 0 0 0 0 0 0 202 255 255 202 100 100 0 0 0 0 152 255 255 152 0 0 0 0 0 0 152 255 255 152 0 0 0 0 100 100 202 255 255 202 0 0 0 0 0 0 152 255 255 152 100 100 0 0 0 0 202 255 255 202 0 0 0 0 0 0 202 255 255 202 0 0 0 0 100 100 152 255 255 152 0 0 0 0 0 0 202 255 255 202 100 100 0 0 0 0 152 255 255 152 0 0 0 0 0 0 152 255 255 152 0 0 0 0 100 100 202 255 255 200 200 0 0 
0 0 200 200 0 0 0 0 0 0 202 255 255 202 0 100 100 0 0 0 152 255 255 152 0 0 0 0 0 0 202 255 255 152 0 0 0 0 0 100 102 255 255 202 0 0 0 0 0 0 152 255 255 152 0 100 100 0 198 255 255 255 255 255 255 255 255 255 255 255 255 255 255 202 0 0 0 0 0 100 252 255 255 152 0 0 0 0 0 0 202 255 255 202 0 100 100 0 0 0 152 255 255 152 0 0 0 0 0 0 202 255 255 152 0 0 0 0 0 100 102 255 255 202 200 200 0 0 
0 0 200 200 0 0 0 0 0 202 255 255 202 0 0 100 100 0 0 152 255 255 152 0 0 0 0 0 0 202 255 255 102 0 0 0 0 0 0 102 255 255 202 0 0 0 0 0 0 152 255 255 152 0 0 255 255 255 255 255 255 255 255 255 255 255 255 255 255 255 255 255 255 198 0 0 0 0 0 252 255 255 152 0 0 0 0 0 0 202 255 255 202 0 0 100 100 0 0 152 255 255 152 0 0 0 0 0 0 202 255 255 102 0 0 0 0 0 0 102 255 255 202 0 200 200 0 0 
0 0 200 200 0 0 0 0 202 255 255 202 0 0 0 100 100 0 152 255 255 152 0 0 0 0 0 0 202 255 255 102 100 0 0 0 0 0 152 255 255 202 0 0 0 0 0 0 152 255 255 152 0 0 248 255 255 255 255 198 0 0 0 0 0 0 0 0 0 255 255 255 255 255 198 0 0 0 202 255 255 152 0 0 0 0 0 0 202 255 255 202 0 0 0 100 100 0 152 255 255 152 0 0 0 0 0 0 202 255 255 102 100 0 0 0 0 0 152 255 255 202 0 0 200 200 0 0 
0 0 200 200 0 0 0 202 255 255 202 0 0 0 0 100 100 152 255 255 152 0 0 0 0 0 0 202 255 255 202 100 100 0 0 0 0 152 255 255 152 0 0 0 0 0 0 152 255 255 152 0 248 255 255 255 248 0 0 0 0 0 0 0 0 0 0 0 0 0 0 0 198 255 255 255 198 202 255 255 202 0 0 0 0 0 0 202 255 255 202 0 0 0 0 100 100 152 255 255 152 0 0 0 0 0 0 202 255 255 202 100 100 0 0 0 0 152 255 255 152 0 0 0 200 200 0 0 
0 0 200 200 0 0 152 255 255 202 0 0 0 0 0 100 252 255 255 152 0 0 0 0 0 0 202 255 255 202 0 100 100 0 0 0 152 255 255 152 0 0 0 0 0 0 202 255 255 152 0 248 255 255 255 248 0 0 0 0 0 0 0 0 0 0 0 0 0 0 0 0 0 198 255 255 255 255 255 202 0 0 0 0 0 0 152 255 255 202 0 0 0 0 0 100 252 255 255 152 0 0 0 0 0 0 202 255 255 202 0 100 100 0 0 0 152 255 255 152 0 0 0 0 200 200 0 0 
0 0 200 200 0 202 255 255 152 100 100 100 100 100 100 255 255 255 152 0 0 0 0 0 0 152 255 255 102 100 100 100 100 100 100 102 255 255 152 0 0 0 0 0 0 152 255 255 202 100 255 255 255 248 0 0 0 0 0 0 0 0 0 0 0 0 0 0 0 0 0 0 0 0 0 198 255 255 255 0 0 0 0 0 0 202 255 255 152 100 100 100 100 100 100 255 255 255 152 0 0 0 0 0 0 152 255 255 102 100 100 100 100 100 100 102 255 255 152 0 0 0 0 0 200 200 0 0 
0 0 200 200 202 255 255 152 100 100 100 100 100 100 252 255 255 152 0 0 0 0 0 0 152 255 255 102 100 100 100 100 100 100 102 255 255 152 0 0 0 0 0 0 152 255 255 202 100 255 255 255 248 0 0 0 0 0 0 0 0 0 0 0 0 0 0 0 0 0 0 0 0 0 0 0 255 255 255 255 0 0 0 0 202 255 255 152 100 100 100 100 100 100 252 255 255 152 0 0 0 0 0 0 152 255 255 102 100 100 100 100 100 100 102 255 255 152 0 0 0 0 0 0 200 200 0 0 
0 0 200 200 255 255 202 100 100 0 0 0 0 152 255 255 152 0 0 0 0 0 0 152 255 255 152 0 0 0 0 100 100 202 255 255 202 0 0 0 0 0 0 152 255 255 152 100 100 255 255 198 0 0 0 0 0 0 0 0 0 0 0 0 0 0 0 0 0 0 0 0 0 0 0 0 0 255 255 255 0 0 0 202 255 255 202 100 100 0 0 0 0 152 255 255 152 0 0 0 0 0 0 152 255 255 152 0 0 0 0 100 100 202 255 255 202 0 0 0 0 0 0 152 255 200 0 0 
0 0 200 255 255 202 0 100 100 0 0 0 152 255 255 152 0 0 0 0 0 0 202 255 255 152 0 0 0 0 0 100 102 255 255 202 0 0 0 0 0 0 152 255 255 152 0 100 255 255 255 0 0 0 0 0 0 0 0 0 0 0 0 0 0 0 0 0 0 0 0 0 0 0 0 0 0 0 255 255 255 0 202 255 255 202 0 100 100 0 0 0 152 255 255 152 0 0 0 0 0 0 202 255 255 152 0 0 0 0 0 100 102 255 255 202 0 0 0 0 0 0 152 255 255 104 0 0 
0 0 204 255 202 0 0 100 100 0 0 152 255 255 152 0 0 0 0 0 0 202 255 255 102 0 0 0 0 0 0 102 255 255 202 0 0 0 0 0 0 152 255 255 152 0 0 255 255 255 198 0 0 0 0 0 0 0 0 0 0 0 0 0 0 0 0 0 0 0 0 0 0 0 0 0 0 0 255 255 255 255 255 255 202 0 0 100 100 0 0 152 255 255 152 0 0 0 0 0 0 202 255 255 102 0 0 0 0 0 0 102 255 255 202 0 0 0 0 0 0 152 255 255 104 104 0 0 
0 0 204 204 0 0 0 100 100 0 152 255 255 152 0 0 0 0 0 0 202 255 255 102 100 0 0 0 0 0 152 255 255 202 0 0 0 0 0 0 152 255 255 152 0 0 0 255 255 198 0 0 0 0 0 0 0 0 0 0 0 0 0 0 0 0 0 0 0 0 0 0 0 0 0 0 0 0 0 255 255 255 255 202 0 0 0 100 100 0 152 255 255 152 0 0 0 0 0 0 202 255 255 102 100 0 0 0 0 0 152 255 255 202 0 0 0 0 0 0 152 255 255 152 104 104 0 0 
0 0 204 204 0 0 0 100 100 152 255 255 152 0 0 0 0 0 0 202 255 255 202 100 100 0 0 0 0 152 255 255 152 0 0 0 0 0 0 152 255 255 152 0 0 0 0 255 255 0 0 0 0 0 0 0 0 0 0 0 0 0 0 0 0 0 0 0 0 0 0 0 0 0 0 0 0 0 0 0 255 255 202 0 0 0 0 100 100 152 255 255 152 0 0 0 0 0 0 202 255 255 202 100 100 0 0 0 0 152 255 255 152 0 0 0 0 0 0 152 255 255 152 0 104 104 0 0 
0 0 204 204 0 0 0 100 252 255 255 152 0 0 0 0 0 0 202 255 255 202 0 100 100 0 0 0 152 255 255 152 0 0 0 0 0 0 202 255 255 152 0 0 0 0 248 255 255 0 0 0 0 0 0 0 0 0 0 0 0 0 0 0 0 0 0 0 0 0 0 0 0 0 0 0 0 0 0 0 255 255 198 0 0 0 0 100 252 255 255 152 0 0 0 0 0 0 202 255 255 202 0 100 100 0 0 0 152 255 255 152 0 0 0 0 0 0 202 255 255 152 0 0 104 104 0 0 
0 0 204 254 100 100 100 255 255 255 152 0 0 0 0 0 0 152 255 255 102 100 100 100 100 100 100 102 255 255 152 0 0 0 0 0 0 152 255 255 202 100 100 100 100 100 255 255 248 0 0 0 0 0 0 0 0 0 0 0 0 0 0 0 0 0 0 0 0 0 0 0 0 0 0 0 0 0 0 0 198 255 255 100 100 100 100 255 255 255 152 0 0 0 0 0 0 152 255 255 102 100 100 100 100 100 100 102 255 255 152 0 0 0 0 0 0 152 255 255 202 100 100 100 204 154 0 0 
0 0 154 204 100 100 252 255 255 152 0 0 0 0 0 0 152 255 255 102 100 100 100 100 100 100 102 255 255 152 0 0 0 0 0 0 152 255 255 202 100 100 100 100 100 100 255 255 0 0 0 0 0 0 0 0 0 0 0 0 0 0 0 0 0 0 0 0 0 0 0 0 0 0 0 0 0 0 0 0 0 255 255 100 100 100 252 255 255 152 0 0 0 0 0 0 152 255 255 102 100 100 100 100 100 100 102 255 255 152 0 0 0 0 0 0 152 255 255 202 100 100 100 100 254 204 0 0 
0 0 104 104 0 152 255 255 152 0 0 0 0 0 0 152 255 255 152 0 0 0 0 100 100 202 255 255 202 0 0 0 0 0 0 152 255 255 152 100 100 0 0 0 0 202 255 255 0 0 0 0 0 0 0 0 0 0 0 0 0 0 0 0 0 0 0 0 0 0 0 0 0 0 0 0 0 0 0 0 0 255 255 0 0 152 255 255 152 0 0 0 0 0 0 152 255 255 152 0 0 0 0 100 100 202 255 255 202 0 0 0 0 0 0 152 255 255 152 100 100 0 0 0 204 204 0 0 
0 0 104 104 152 255 255 152 0 0 0 0 0 0 202 255 255 152 0 0 0 0 0 100 102 255 255 202 0 0 0 0 0 0 152 255 255 152 0 100 100 0 0 0 202 255 255 255 0 0 0 0 0 0 0 0 0 0 0 0 0 0 0 0 0 0 0 0 0 0 0 0 0 0 0 0 0 0 0 0 0 255 255 0 152 255 255 152 0 0 0 0 0 0 202 255 255 152 0 0 0 0 0 100 102 255 255 202 0 0 0 0 0 0 152 255 255 152 0 100 100 0 0 0 204 204 0 0 
0 0 104 104 255 255 152 0 0 0 0 0 0 202 255 255 102 0 0 0 0 0 0 102 255 255 202 0 0 0 0 0 0 152 255 255 152 0 0 100 100 0 0 202 255 255 255 255 0 0 0 0 0 0 0 0 0 0 0 0 0 0 0 0 0 0 0 0 0 0 0 0 0 0 0 0 0 0 0 0 0 255 255 152 255 255 152 0 0 0 0 0 0 202 255 255 102 0 0 0 0 0 0 102 255 255 202 0 0 0 0 0 0 152 255 255 152 0 0 100 100 0 0 202 255 204 0 0 
0 0 104 255 255 152 0 0 0 0 0 0 202 255 255 102 100 0 0 0 0 0 152 255 255 202 0 0 0 0 0 0 152 255 255 152 0 0 0 100 100 0 202 255 255 202 255 255 0 0 0 0 0 0 0 0 0 0 0 0 0 0 0 0 0 0 0 0 0 0 0 0 0 0 0 0 0 0 0 0 0 255 255 255 255 152 0 0 0 0 0 0 202 255 255 102 100 0 0 0 0 0 152 255 255 202 0 0 0 0 0 0 152 255 255 152 0 0 0 100 100 0 202 255 255 200 0 0 
0 0 200 255 152 0 0 0 0 0 0 202 255 255 202 100 100 0 0 0 0 152 255 255 152 0 0 0 0 0 0 152 255 255 152 0 0 0 0 100 100 202 255 255 202 0 255 255 0 0 0 0 0 0 0 0 0 0 0 0 0 0 0 0 0 0 0 0 0 0 0 0 0 0 0 0 0 0 0 0 0 255 255 255 152 0 0 0 0 0 0 202 255 255 202 100 100 0 0 0 0 152 255 255 152 0 0 0 0 0 0 152 255 255 152 0 0 0 0 100 100 202 255 255 200 200 0 0 
0 0 200 200 0 0 0 0 0 0 202 255 255 202 0 100 100 0 0 0 152 255 255 152 0 0 0 0 0 0 202 255 255 152 0 0 0 0 0 100 102 255 255 202 0 0 255 255 0 0 0 0 0 0 0 0 0 0 0 0 0 0 0 0 0 0 0 0 0 0 0 0 0 0 0 0 0 0 0 0 0 255 255 152 0 0 0 0 0 0 202 255 255 202 0 100 100 0 0 0 152 255 255 152 0 0 0 0 0 0 202 255 255 152 0 0 0 0 0 100 102 255 255 202 200 200 0 0 
0 0 200 200 0 0 0 0 0 152 255 255 102 100 100 100 100 100 100 102 255 255 152 0 0 0 0 0 0 152 255 255 202 100 100 100 100 100 100 52 255 255 202 0 0 0 255 255 0 0 0 0 0 0 0 0 0 0 0 0 0 0 0 0 0 0 0 0 0 0 0 0 0 0 0 0 0 0 0 0 0 255 255 0 0 0 0 0 0 152 255 255 102 100 100 100 100 100 100 102 255 255 152 0 0 0 0 0 0 152 255 255 202 100 100 100 100 100 100 52 255 255 202 0 200 200 0 0 
0 0 200 200 0 0 0 0 152 255 255 102 100 100 100 100 100 100 102 255 255 152 0 0 0 0 0 0 152 255 255 202 100 100 100 100 100 100 102 255 255 202 0 0 0 0 255 255 0 0 0 0 0 0 0 0 0 0 0 0 0 0 0 0 0 0 0 0 0 0 0 0 0 0 0 0 0 0 0 0 0 255 255 0 0 0 0 0 152 255 255 102 100 100 100 100 100 100 102 255 255 152 0 0 0 0 0 0 152 255 255 202 100 100 100 100 100 100 102 255 255 202 0 0 200 200 0 0 
0 0 200 200 0 0 0 152 255 255 152 0 0 0 0 100 100 202 255 255 202 0 0 0 0 0 0 152 255 255 152 100 100 0 0 0 0 202 255 255 202 0 0 0 0 0 255 255 255 0 0 0 0 0 0 0 0 0 0 0 0 0 0 0 0 0 0 0 0 0 0 0 0 0 0 0 0 0 0 0 255 255 255 0 0 0 0 152 255 255 152 0 0 0 0 100 100 202 255 255 202 0 0 0 0 0 0 152 255 255 152 100 100 0 0 0 0 202 255 255 202 0 0 0 200 200 0 0 
0 0 200 200 0 0 202 255 255 152 0 0 0 0 0 100 102 255 255 202 0 0 0 0 0 0 152 255 255 152 0 100 100 0 0 0 202 255 255 202 0 0 0 0 0 0 255 255 255 0 0 0 0 0 0 0 0 0 0 0 0 0 0 0 0 0 0 0 0 0 0 0 0 0 0 0 0 0 0 0 255 255 255 0 0 0 202 255 255 152 0 0 0 0 0 100 102 255 255 202 0 0 0 0 0 0 152 255 255 152 0 100 100 0 0 0 202 255 255 202 0 0 0 0 200 200 0 0 
0 0 200 200 0 202 255 255 102 0 0 0 0 0 0 102 255 255 202 0 0 0 0 0 0 152 255 255 152 0 0 100 100 0 0 202 255 255 202 0 0 0 0 0 0 152 255 255 255 0 0 0 0 0 0 0 0 0 0 0 0 0 0 0 0 0 0 0 0 0 0 0 0 0 0 0 0 0 0 0 255 255 0 0 0 202 255 255 102 0 0 0 0 0 0 102 255 255 202 0 0 0 0 0 0 152 255 255 152 0 0 100 100 0 0 202 255 255 202 0 0 0 0 0 200 200 0 0 
0 0 200 200 202 255 255 102 100 0 0 0 0 0 152 255 255 202 0 0 0 0 0 0 152 255 255 152 0 0 0 100 100 0 202 255 255 202 0 0 0 0 0 0 152 255 255 255 255 198 0 0 0 0 0 0 0 0 0 0 0 0 0 0 0 0 0 0 0 0 0 0 0 0 0 0 0 0 0 255 255 255 0 0 202 255 255 102 100 0 0 0 0 0 152 255 255 202 0 0 0 0 0 0 152 255 255 152 0 0 0 100 100 0 202 255 255 202 0 0 0 0 0 0 200 200 0 0 
0 0 200 200 255 255 202 100 100 0 0 0 0 152 255 255 152 0 0 0 0 0 0 152 255 255 152 0 0 0 0 100 100 202 255 255 202 0 0 0 0 0 0 152 255 255 152 255 255 255 198 0 0 0 0 0 0 0 0 0 0 0 0 0 0 0 0 0 0 0 0 0 0 0 0 0 0 0 255 255 255 255 0 202 255 255 202 100 100 0 0 0 0 152 255 255 152 0 0 0 0 0 0 152 255 255 152 0 0 0 0 100 100 202 255 255 202 0 0 0 0 0 0 152 255 200 0 0 
0 0 200 255 255 202 0 100 100 0 0 0 152 255 255 152 0 0 0 0 0 0 202 255 255 152 0 0 0 0 0 100 102 255 255 202 0 0 0 0 0 0 152 255 255 152 0 100 255 255 255 0 0 0 0 0 0 0 0 0 0 0 0 0 0 0 0 0 0 0 0 0 0 0 0 0 0 0 255 255 255 0 202 255 255 202 0 100 100 0 0 0 152 255 255 152 0 0 0 0 0 0 202 255 255 152 0 0 0 0 0 100 102 255 255 202 0 0 0 0 0 0 152 255 255 104 0 0 
0 0 154 255 102 100 100 100 100 100 100 102 255 255 152 0 0 0 0 0 0 152 255 255 202 100 100 100 100 100 100 52 255 255 202 0 0 0 0 0 0 202 255 255 252 100 100 100 100 255 255 248 0 0 0 0 0 0 0 0 0 0 0 0 0 0 0 0 0 0 0 0 0 0 0 0 0 255 255 255 0 152 255 255 102 100 100 100 100 100 100 102 255 255 152 0 0 0 0 0 0 152 255 255 202 100 100 100 100 100 100 52 255 255 202 0 0 0 0 0 0 202 255 255 204 154 0 0 
0 0 154 204 100 100 100 100 100 100 102 255 255 152 0 0 0 0 0 0 152 255 255 202 100 100 100 100 100 100 102 255 255 202 0 0 0 0 0 0 202 255 255 252 100 100 100 100 100 255 255 255 255 0 0 0 0 0 0 0 0 0 0 0 0 0 0 0 0 0 0 0 0 0 0 0 255 255 255 255 152 255 255 102 100 100 100 100 100 100 102 255 255 152 0 0 0 0 0 0 152 255 255 202 100 100 100 100 100 100 102 255 255 202 0 0 0 0 0 0 202 255 255 252 254 204 0 0 
0 0 104 104 0 0 0 100 100 202 255 255 202 0 0 0 0 0 0 152 255 255 152 100 100 0 0 0 0 202 255 255 202 0 0 0 0 0 0 202 255 255 202 0 0 0 0 100 100 152 255 255 255 255 0 0 0 0 0 0 0 0 0 0 0 0 0 0 0 0 0 0 0 0 0 255 255 255 255 152 255 255 152 0 0 0 0 100 100 202 255 255 202 0 0 0 0 0 0 152 255 255 152 100 100 0 0 0 0 202 255 255 202 0 0 0 0 0 0 202 255 255 202 0 204 204 0 0 
0 0 104 104 0 0 0 100 102 255 255 202 0 0 0 0 0 0 152 255 255 152 0 100 100 0 0 0 202 255 255 202 0 0 0 0 0 0 152 255 255 202 0 0 0 0 0 100 252 255 255 255 255 255 255 255 0 0 0 0 0 0 0 0 0 0 0 0 0 0 0 0 0 255 255 255 255 255 202 255 255 152 0 0 0 0 0 100 102 255 255 202 0 0 0 0 0 0 152 255 255 152 0 100 100 0 0 0 202 255 255 202 0 0 0 0 0 0 152 255 255 202 0 0 204 204 0 0 
0 0 104 104 0 0 0 102 255 255 202 0 0 0 0 0 0 152 255 255 152 0 0 100 100 0 0 202 255 255 202 0 0 0 0 0 0 152 255 255 252 0 0 0 0 0 0 252 255 255 152 0 255 255 255 255 255 0 0 0 0 0 0 0 0 0 0 0 0 0 0 0 255 255 255 255 255 202 255 255 102 0 0 0 0 0 0 102 255 255 202 0 0 0 0 0 0 152 255 255 152 0 0 100 100 0 0 202 255 255 202 0 0 0 0 0 0 152 255 255 252 0 0 0 204 204 0 0 
0 0 104 104 0 0 152 255 255 202 0 0 0 0 0 0 152 255 255 152 0 0 0 100 100 0 202 255 255 202 0 0 0 0 0 0 152 255 255 252 100 0 0 0 0 0 202 255 255 152 0 0 0 0 255 255 255 255 255 198 0 0 0 0 0 0 0 0 0 255 255 255 255 255 255 0 202 255 255 102 100 0 0 0 0 0 152 255 255 202 0 0 0 0 0 0 152 255 255 152 0 0 0 100 100 0 202 255 255 202 0 0 0 0 0 0 152 255 255 252 100 0 0 0 204 204 0 0 
0 0 104 104 0 152 255 255 152 0 0 0 0 0 0 152 255 255 152 0 0 0 0 100 100 202 255 255 202 0 0 0 0 0 0 152 255 255 152 100 100 0 0 0 0 202 255 255 202 0 0 0 0 0 0 255 255 255 255 255 255 255 255 255 255 255 255 255 255 255 255 255 255 255 0 202 255 255 202 100 100 0 0 0 0 152 255 255 152 0 0 0 0 0 0 152 255 255 152 0 0 0 0 100 100 202 255 255 202 0 0 0 0 0 0 152 255 255 152 100 100 0 0 0 204 204 0 0 
0 0 104 104 152 255 255 152 0 0 0 0 0 0 202 255 255 152 0 0 0 0 0 100 102 255 255 202 0 0 0 0 0 0 152 255 255 152 0 100 100 0 0 0 202 255 255 202 0 0 0 0 0 0 152 255 255 202 198 255 255 255 255 255 255 255 255 255 255 255 255 0 0 0 202 255 255 202 0 100 100 0 0 0 152 255 255 152 0 0 0 0 0 0 202 255 255 152 0 0 0 0 0 100 102 255 255 202 0 0 0 0 0 0 152 255 255 152 0 100 100 0 0 0 204 204 0 0 
0 0 154 54 255 255 152 0 0 0 0 0 0 152 255 255 202 100 100 100 100 100 100 52 255 255 202 0 0 0 0 0 0 202 255 255 252 100 100 100 100 100 100 252 255 255 202 0 0 0 0 0 0 202 255 255 152 100 100 100 100 100 100 255 255 255 152 0 0 0 0 0 0 152 255 255 102 100 100 100 100 100 100 102 255 255 152 0 0 0 0 0 0 152 255 255 202 100 100 100 100 100 100 52 255 255 202 0 0 0 0 0 0 202 255 255 252 100 100 100 100 100 100 252 255 204 0 0 
0 0 154 255 255 152 0 0 0 0 0 0 152 255 255 202 100 100 100 100 100 100 102 255 255 202 0 0 0 0 0 0 202 255 255 252 100 100 100 100 100 100 252 255 255 202 0 0 0 0 0 0 202 255 255 152 100 100 100 100 100 100 252 255 255 152 0 0 0 0 0 0 152 255 255 102 100 100 100 100 100 100 102 255 255 152 0 0 0 0 0 0 152 255 255 202 100 100 100 100 100 100 102 255 255 202 0 0 0 0 0 0 202 255 255 252 100 100 100 100 100 100 252 255 255 200 0 0 
0 0 200 255 202 0 0 0 0 0 0 152 255 255 152 100 100 0 0 0 0 202 255 255 202 0 0 0 0 0 0 202 255 255 202 0 0 0 0 100 100 152 255 255 152 0 0 0 0 0 0 202 255 255 202 100 100 0 0 0 0 152 255 255 152 0 0 0 0 0 0 152 255 255 152 0 0 0 0 100 100 202 255 255 202 0 0 0 0 0 0 152 255 255 152 100 100 0 0 0 0 202 255 255 202 0 0 0 0 0 0 202 255 255 202 0 0 0 0 100 100 152 255 255 200 200 0 0 
0 0 200 200 0 0 0 0 0 0 152 255 255 152 0 100 100 0 0 0 202 255 255 202 0 0 0 0 0 0 152 255 255 202 0 0 0 0 0 100 252 255 255 152 0 0 0 0 0 0 202 255 255 202 0 100 100 0 0 0 152 255 255 152 0 0 0 0 0 0 202 255 255 152 0 0 0 0 0 100 102 255 255 202 0 0 0 0 0 0 152 255 255 152 0 100 100 0 0 0 202 255 255 202 0 0 0 0 0 0 152 255 255 202 0 0 0 0 0 100 252 255 255 152 200 200 0 0 
0 0 200 200 0 0 0 0 0 152 255 255 152 0 0 100 100 0 0 202 255 255 202 0 0 0 0 0 0 152 255 255 252 0 0 0 0 0 0 252 255 255 152 0 0 0 0 0 0 202 255 255 202 0 0 100 100 0 0 152 255 255 152 0 0 0 0 0 0 202 255 255 102 0 0 0 0 0 0 102 255 255 202 0 0 0 0 0 0 152 255 255 152 0 0 100 100 0 0 202 255 255 202 0 0 0 0 0 0 152 255 255 252 0 0 0 0 0 0 252 255 255 152 0 200 200 0 0 
0 0 200 200 0 0 0 0 152 255 255 152 0 0 0 100 100 0 202 255 255 202 0 0 0 0 0 0 152 255 255 252 100 0 0 0 0 0 202 255 255 152 0 0 0 0 0 0 202 255 255 202 0 0 0 100 100 0 152 255 255 152 0 0 0 0 0 0 202 255 255 102 100 0 0 0 0 0 152 255 255 202 0 0 0 0 0 0 152 255 255 152 0 0 0 100 100 0 202 255 255 202 0 0 0 0 0 0 152 255 255 252 100 0 0 0 0 0 202 255 255 152 0 0 200 200 0 0 
0 0 200 200 0 0 0 152 255 255 152 0 0 0 0 100 100 202 255 255 202 0 0 0 0 0 0 152 255 255 152 100 100 0 0 0 0 202 255 255 202 0 0 0 0 0 0 202 255 255 202 0 0 0 0 100 100 152 255 255 152 0 0 0 0 0 0 202 255 255 202 100 100 0 0 0 0 152 255 255 152 0 0 0 0 0 0 152 255 255 152 0 0 0 0 100 100 202 255 255 202 0 0 0 0 0 0 152 255 255 152 100 100 0 0 0 0 202 255 255 202 0 0 0 200 200 0 0 
0 0 200 200 0 0 202 255 255 152 0 0 0 0 0 100 102 255 255 202 0 0 0 0 0 0 152 255 255 152 0 100 100 0 0 0 202 255 255 202 0 0 0 0 0 0 152 255 255 202 0 0 0 0 0 100 252 255 255 152 0 0 0 0 0 0 202 255 255 202 0 100 100 0 0 0 152 255 255 152 0 0 0 0 0 0 202 255 255 152 0 0 0 0 0 100 102 255 255 202 0 0 0 0 0 0 152 255 255 152 0 100 100 0 0 0 202 255 255 202 0 0 0 0 200 200 0 0 
0 0 200 200 0 152 255 255 202 100 100 100 100 100 100 52 255 255 202 0 0 0 0 0 0 202 255 255 252 100 100 100 100 100 100 252 255 255 202 0 0 0 0 0 0 202 255 255 152 100 100 100 100 100 100 255 255 255 152 0 0 0 0 0 0 152 255 255 102 100 100 100 100 100 100 102 255 255 152 0 0 0 0 0 0 152 255 255 202 100 100 100 100 100 100 52 255 255 202 0 0 0 0 0 0 202 255 255 252 100 100 100 100 100 100 252 255 255 202 0 0 0 0 0 200 200 0 0 
0 0 200 200 152 255 255 202 100 100 100 100 100 100 102 255 255 202 0 0 0 0 0 0 202 255 255 252 100 100 100 100 100 100 252 255 255 202 0 0 0 0 0 0 202 255 255 152 100 100 100 100 100 100 252 255 255 152 0 0 0 0 0 0 152 255 255 102 100 100 100 100 100 100 102 255 255 152 0 0 0 0 0 0 152 255 255 202 100 100 100 100 100 100 102 255 255 202 0 0 0 0 0 0 202 255 255 252 100 100 100 100 100 100 252 255 255 202 0 0 0 0 0 0 200 200 0 0 
0 0 200 200 255 255 152 100 100 0 0 0 0 202 255 255 202 0 0 0 0 0 0 202 255 255 202 0 0 0 0 100 100 152 255 255 152 0 0 0 0 0 0 202 255 255 202 100 100 0 0 0 0 152 255 255 152 0 0 0 0 0 0 152 255 255 152 0 0 0 0 100 100 202 255 255 202 0 0 0 0 0 0 152 255 255 152 100 100 0 0 0 0 202 255 255 202 0 0 0 0 0 0 202 255 255 202 0 0 0 0 100 100 152 255 255 152 0 0 0 0 0 0 202 255 200 0 0 
0 0 200 255 255 152 0 100 100 0 0 0 202 255 255 202 0 0 0 0 0 0 152 255 255 202 0 0 0 0 0 100 252 255 255 152 0 0 0 0 0 0 202 255 255 202 0 100 100 0 0 0 152 255 255 152 0 0 0 0 0 0 202 255 255 152 0 0 0 0 0 100 102 255 255 202 0 0 0 0 0 0 152 255 255 152 0 100 100 0 0 0 202 255 255 202 0 0 0 0 0 0 152 255 255 202 0 0 0 0 0 100 252 255 255 152 0 0 0 0 0 0 202 255 255 204 0 0 
0 0 104 255 152 0 0 100 100 0 0 202 255 255 202 0 0 0 0 0 0 152 255 255 252 0 0 0 0 0 0 252 255 255 152 0 0 0 0 0 0 202 255 255 202 0 0 100 100 0 0 152 255 255 152 0 0 0 0 0 0 202 255 255 102 0 0 0 0 0 0 102 255 255 202 0 0 0 0 0 0 152 255 255 152 0 0 100 100 0 0 202 255 255 202 0 0 0 0 0 0 152 255 255 252 0 0 0 0 0 0 252 255 255 152 0 0 0 0 0 0 202 255 255 204 204 0 0 
0 0 104 156 104 104 104 204 254 204 204 255 255 200 200 200 200 200 200 200 200 255 255 204 254 204 204 204 204 204 204 255 255 200 200 200 200 200 200 200 200 255 255 204 204 204 204 254 204 104 104 255 255 200 200 200 200 200 200 200 200 255 255 104 204 104 104 104 104 104 104 255 255 200 200 200 200 200 200 200 200 255 255 104 104 104 104 204 254 204 204 255 255 200 200 200 200 200 200 200 200 255 255 204 254 204 204 204 204 204 204 255 255 200 200 200 200 200 200 200 200 255 255 204 255 204 0 0 
0 0 52 104 104 104 104 154 204 204 204 204 200 200 200 200 200 200 200 200 200 200 104 154 204 204 204 204 204 204 204 204 200 200 200 200 200 200 200 200 200 200 204 204 204 204 204 204 154 104 104 104 200 200 200 200 200 200 200 200 200 200 204 204 154 104 104 104 104 104 104 104 200 200 200 200 200 200 200 200 200 200 104 104 104 104 104 154 204 204 204 204 200 200 200 200 200 200 200 200 200 200 104 154 204 204 204 204 204 204 204 204 200 200 200 200 200 200 200 200 200 200 204 204 204 102 0 0 
0 0 0 0 0 0 0 0 0 0 0 0 0 0 0 0 0 0 0 0 0 0 0 0 0 0 0 0 0 0 0 0 0 0 0 0 0 0 0 0 0 0 0 0 0 0 0 0 0 0 0 0 0 0 0 0 0 0 0 0 0 0 0 0 0 0 0 0 0 0 0 0 0 0 0 0 0 0 0 0 0 0 0 0 0 0 0 0 0 0 0 0 0 0 0 0 0 0 0 0 0 0 0 0 0 0 0 0 0 0 0 0 0 0 0 0 0 0 0 0 0 0 0 0 0 0 0 0 
0 0 0 0 0 0 0 0 0 0 0 0 0 0 0 0 0 0 0 0 0 0 0 0 0 0 0 0 0 0 0 0 0 0 0 0 0 0 0 0 0 0 0 0 0 0 0 0 0 0 0 0 0 0 0 0 0 0 0 0 0 0 0 0 0 0 0 0 0 0 0 0 0 0 0 0 0 0 0 0 0 0 0 0 0 0 0 0 0 0 0 0 0 0 0 0 0 0 0 0 0 0 0 0 0 0 0 0 0 0 0 0 0 0 0 0 0 0 0 0 0 0 0 0 0 0 0 0 
